images/icons/facebook.svg

<svg width="40" height="64" viewBox="0 0 40 64" fill="none" xmlns="http://www.w3.org/2000/svg">
<path d="M34.8925 36L36.67 24.4175H25.5562V16.9013C25.5562 13.7325 27.1087 10.6438 32.0862 10.6438H37.1387V0.7825C37.1387 0.7825 32.5537 0 28.17 0C19.0175 0 13.035 5.5475 13.035 15.59V24.4175H2.86124V36H13.035V64H25.5562V36H34.8925Z" fill="black"/>
</svg>

<svg width="40" height="64" viewBox="0 0 40 64" fill="none" xmlns="http://www.w3.org/2000/svg"><path d="m34.892 36 1.778-11.582H25.556V16.9c0-3.168 1.553-6.257 6.53-6.257h5.053V.783S32.554 0 28.17 0c-9.153 0-15.135 5.548-15.135 15.59v8.828H2.861V36h10.174v28h12.521V36h9.336Z" fill="#000"/></svg>
